src/Pure/16/symbolic/actions/xapp-annotations-text-symbolic.svg

<svg width="16" height="16" version="1.1" viewBox="0 0 16 16" xmlns="http://www.w3.org/2000/svg">
 <path d="m3 2c-1.108 0-2 0.892-2 2v6c0 1.108 0.892 2 2 2h6v3l3-3h1c1.108 0 2-0.892 2-2v-6c0-1.108-0.892-2-2-2h-10zm0 1h10c0.554 0 1 0.446 1 1v6c0 0.554-0.446 1-1 1h-10c-0.554 0-1-0.446-1-1v-6c0-0.554 0.446-1 1-1z" fill="#363636"/>
 <path d="m3 5h10v1h-10zm0 3h7v1h-7z" fill="#363636"/>
</svg>

<?xml version="1.0" encoding="UTF-8" standalone="no"?>
<svg
   width="16"
   height="16"
   version="1.1"
   viewBox="0 0 16 16"
   id="svg2"
   sodipodi:docname="xapp-annotations-text-symbolic.svg"
   inkscape:version="1.4.2 (ebf0e940d0, 2025-05-08)"
   xmlns:inkscape="http://www.inkscape.org/namespaces/inkscape"
   xmlns:sodipodi="http://sodipodi.sourceforge.net/DTD/sodipodi-0.dtd"
   xmlns="http://www.w3.org/2000/svg"
   xmlns:svg="http://www.w3.org/2000/svg">
  <defs
      id="defs2">
      <style
          id="current-color-scheme"
          type="text/css">
          .ColorScheme-Text { color:#363636; }
      </style>
  </defs>
  <sodipodi:namedview
     id="namedview2"
     pagecolor="#ffffff"
     bordercolor="#000000"
     borderopacity="0.25"
     inkscape:showpageshadow="2"
     inkscape:pageopacity="0.0"
     inkscape:pagecheckerboard="0"
     inkscape:deskcolor="#d1d1d1"
     inkscape:zoom="49.6875"
     inkscape:cx="8"
     inkscape:cy="8"
     inkscape:window-width="1920"
     inkscape:window-height="1010"
     inkscape:window-x="0"
     inkscape:window-y="0"
     inkscape:window-maximized="1"
     inkscape:current-layer="svg2" />
  <path
     id="path1"
     style="fill:currentColor;fill-opacity:1"
     class="ColorScheme-Text"
     d="M 3 2 C 1.892 2 1 2.892 1 4 L 1 10 C 1 11.108 1.892 12 3 12 L 9 12 L 9 15 L 12 12 L 13 12 C 14.108 12 15 11.108 15 10 L 15 4 C 15 2.892 14.108 2 13 2 L 3 2 z M 3 3 L 13 3 C 13.554 3 14 3.446 14 4 L 14 10 C 14 10.554 13.554 11 13 11 L 3 11 C 2.446 11 2 10.554 2 10 L 2 4 C 2 3.446 2.446 3 3 3 z M 3 5 L 3 6 L 13 6 L 13 5 L 3 5 z M 3 8 L 3 9 L 10 9 L 10 8 L 3 8 z " />
</svg>
